public/icons/professionalism.svg

<svg width="80" height="80" viewBox="0 0 80 80" fill="none" xmlns="http://www.w3.org/2000/svg">
<rect x="1.5" y="1.5" width="77" height="77" rx="38.5" fill="#E8F1FC"/>
<rect x="1.5" y="1.5" width="77" height="77" rx="38.5" stroke="#093160" stroke-width="3"/>
<path d="M53.4083 58.275L59.0021 38.4833C59.0897 38.1733 59.1042 37.8472 59.0445 37.5306C58.9848 37.214 58.8525 36.9156 58.658 36.6587C58.4635 36.4019 58.212 36.1937 57.9234 36.0505C57.6348 35.9073 57.317 35.8329 56.9948 35.8333H45.0365C44.865 35.8333 44.6958 35.7947 44.5414 35.7202C44.387 35.6457 44.2514 35.5374 44.1446 35.4032C44.0379 35.269 43.9628 35.1125 43.925 34.9453C43.8871 34.7781 43.8875 34.6045 43.926 34.4375L44.4469 32.1833C44.924 30.1156 45.0771 27.9854 44.901 25.8708L44.8052 24.7219C44.7025 23.4893 44.1663 22.3329 43.2917 21.4583C42.4916 20.6581 41.4065 20.2085 40.275 20.2083H40.025C39.3406 20.2083 38.7104 20.5792 38.3792 21.1771L35.6094 26.1615C34.3677 28.3969 32.5167 30.2338 30.2719 31.4583L23.3354 35.2396C23.0066 35.419 22.7322 35.6838 22.5412 36.0061C22.3501 36.3284 22.2496 36.6962 22.25 37.0708V57.7083C22.25 58.2609 22.4695 58.7908 22.8602 59.1815C23.2509 59.5722 23.7808 59.7917 24.3333 59.7917H51.4031C51.8568 59.7915 52.2979 59.6433 52.6597 59.3696C53.0214 59.0959 53.2849 58.7115 53.4083 58.275Z" stroke="#093160" stroke-width="4" stroke-linecap="round" stroke-linejoin="round"/>
</svg>

<svg xmlns="http://www.w3.org/2000/svg" width="80" height="80" fill="none"><rect width="77" height="77" x="1.5" y="1.5" fill="#E8F1FC" rx="38.5"/><rect width="77" height="77" x="1.5" y="1.5" stroke="#093160" stroke-width="3" rx="38.5"/><path stroke="#093160" stroke-linecap="round" stroke-linejoin="round" stroke-width="4" d="m53.408 58.275 5.594-19.792a2.084 2.084 0 0 0-2.007-2.65H45.037a1.14 1.14 0 0 1-1.111-1.395l.52-2.255a20.5 20.5 0 0 0 .455-6.312l-.096-1.15a5.23 5.23 0 0 0-1.513-3.263c-.8-.8-1.886-1.25-3.017-1.25h-.25a1.88 1.88 0 0 0-1.646.97l-2.77 4.983a13.5 13.5 0 0 1-5.337 5.297l-6.937 3.782a2.08 2.08 0 0 0-1.085 1.83v20.638a2.083 2.083 0 0 0 2.083 2.084h27.07a2.084 2.084 0 0 0 2.005-1.517"/></svg>
